X:1
T:Über den Sternen
T:Franz Abt
T:Ida von Hahn-Hahn
T:Über den Sternen
T:CPDL   —   Creative Commons Attribution Non Commercial 3.0
T:CPDL   —   Creative Commons Attribution Non Commercial 3.0
C:Franz Abt
Z:Ida von Hahn-Hahn
Z:CPDL   —   Creative Commons Attribution Non Commercial 3.0
%%score [ ( 1 2 ) 3 4 ]
L:1/8
Q:1/4=120
M:4/4
K:F
V:1 treble nm="Sopran\nAlt"
V:2 treble 
V:3 treble-8 nm="Tenor"
V:4 bass nm="Bass"
V:1
!pp!"^Langsam" A4 A2 A2 | G4 F2!<(! A2 | (B2 =B2)!<)! c2 G2 |!>(! _B4 A2!>)! z2 | %4
w: 1.  Ü- ber den|Ster- nen, da|wird _ es einst|ta- gen,|
w: 2.  Ü- ber den|Ster- nen, da|schwin- * det die|Täu- schung,|
!p! A4!<(! =B2 G2!<)! | (G2 c2)!>(! A2 F2!>)! | (E2 G2) F2!pp! D2 | C6 z2 |!pp! C4 E2 G2 | %9
w: da wird dein|Hof- * fen, dein|Seh- * nen ge-|stillt.|Was du ge-|
w: da siehst du|al- * les ent-|rät- * selt, ent-|hüllt.|Was du er-|
"^poco a poco cresc." G4 F2 F2 | (F2!<(! A2) c2!<)! _e2 |!>(! _e4 d2!>)! z2 |!f! !>!d4 =e2 f2 | %13
w: lit- ten, und|was _ du ge-|tra- gen,|dort ein all-|
w: war- tet, des|Him- * mels Ver-|hei- ßung,|dort wird es|
 (f2 c2) A2 d2 |!>(! c4!>)! G2 B2 |!p! A6 z2 |!f! !>!f4 e2 d2 | (d2 c2)!>(! F2 B2!>)! | %18
w: mäch- * ti- ges|We- sen ver-|gilt,|dort ein all-|mäch- * ti- ges|
w: herr- * lich und|e- wig er-|füllt,|dort wird es|herr- * lich und|
 A4!p!!>(! G7/2 F/!>)! |!pp! F6 z2 |] %20
w: We- sen ver-|gilt.|
w: e- wig er-|füllt.|
V:2
 F4 F2 F2 | E4 F2 F2 | F4 E2 E2 | G4 F2 x2 | F4 G2 G2 | G4 F2 D2 | (C2 E2) D2 =B,2 | C6 x2 | %8
 C4 C2 C2 | C4 C2 C2 | (C2 F2) A2 c2 | c4 B2 x2 | _A4 A2 A2 | =A4 F2 F2 | E4 E2 G2 | F6 x2 | %16
 F4 F2 F2 | F4 F2 F2 | F4 E7/2 C/ | C6 x2 |] %20
V:3
!pp! c4 c2 c2 | c4 c2!<(! c2 | d4!<)! c2 c2 |!>(! c4 c2!>)! z2 |!p! c4!<(! d2 =B2!<)! | %5
w: 3.  Ü- ber den|Ster- nen, da|fin- den sich|wie- der|We- sen, die|
w: 4.  Ü- ber den|Ster- nen, da|we- hen die|Pal- men|himm- li- sche|
 c4!>(! c2 A2!>)! | G4 G2!pp! F2 | E6 z2 |!pp! E4 G2 _B2 |"^poco a poco cresc." B4 A2 A2 | %10
w: feind- lich das|Schick- sal ge-|trennt.|Dort sinkt die|hem- men- de|
w: Küh- lung, o|Dul- der, dir|zu.|En- gel be-|glei- ten mit|
 (A2!<(! c2) f2!<)! f2 |!>(! f4 f2!>)! z2 |!f! !>!f4 =e2 d2 | c4 c2 A2 |!>(! G4!>)! c2 c2 | %15
w: Schei- * de- wand|nie- der,|See- le und|Seel- e sich|freu- dig er-|
w: hei- * li- gen|Psal- men|tod- mü- de|Her- zen zur|e- wi- gen|
!p! c6 z2 |!f! !>!d4 c2 B2 | A4!>(! A2 d2!>)! | c4!p!!>(! B7/2 A/!>)! |!pp! A6 z2 |] %20
w: kennt,|See- le und|Seel- e sich|freu- dig er-|kennt.|
w: Ruh',|tod- mü- de|Her- zen zur|e- wi- gen|Ruh'.|
V:4
!pp! F,4 F,2 F,2 | B,4 A,2!<(! A,2 | G,4!<)! C,2 C,2 |!>(! F,4 F,2!>)! z2 | %4
!p! F,4!<(! F,2 F,2!<)! | E,4!>(! F,2 F,2!>)! | G,4 G,,2!pp! G,,2 | C,6 z2 |!pp! C,4 C,2 C,2 | %9
"^poco a poco cresc." F,4 F,2 F,2 | F,4!<(! F,2!<)! F,2 |!>(! B,4 B,2!>)! z2 |!f! !>!=B,4 B,2 B,2 | %13
 C4 C,2 C,2 |!>(! C,4!>)! C,2 E,2 |!p! F,6 z2 |!f! !>!B,,4 B,,2 B,,2 | C,4!>(! D,2 G,,2!>)! | %18
 C,4!p!!>(! C,7/2 [F,,F,]/!>)! |!pp! [F,,F,]6 z2 |] %20

